svg/u0035.svg

<svg viewBox="0 0 128 128" xmlns="http://www.w3.org/2000/svg">
  <linearGradient id="SVGID_1_" gradientTransform="matrix(1 0 0 -1 0 128)" gradientUnits="userSpaceOnUse" x1="64.005" x2="64.005" y1="101.5" y2="25.76">
    <stop offset="0" stop-color="#757575"/>
    <stop offset="0.5148" stop-color="#504F4F"/>
  </linearGradient>
  <path d="M41.86,62.07l3.69-34.29c0.11-1.01,0.96-1.77,1.98-1.77h36.49c1.1,0,1.99,0.89,1.99,1.99v6.84 c0,1.1-0.89,1.99-1.99,1.99h-26.1c-1.01,0-1.86,0.76-1.97,1.76L54.5,51.21c-0.17,1.49,1.29,2.6,2.69,2.07 c2.65-1.01,5.54-1.52,8.64-1.52c7.14,0,12.69,2.28,16.66,6.85c3.96,4.57,5.95,10.71,5.95,18.43c0,7.62-2.2,13.69-6.59,18.2 c-4.4,4.5-10.43,6.76-18.08,6.76c-6.87,0-12.56-1.95-17.07-5.84c-3.97-3.43-6.34-7.81-7.11-13.17c-0.17-1.19,0.77-2.26,1.98-2.26 h8.23c0.94,0,1.74,0.66,1.94,1.58c0.62,2.88,1.83,5.14,3.64,6.79c2.13,1.94,4.91,2.91,8.34,2.91c3.84,0,6.84-1.37,8.99-4.12 c2.14-2.75,3.22-6.49,3.22-11.22c0-4.56-1.18-8.18-3.55-10.84s-5.63-3.99-9.78-3.99c-2.27,0-4.19,0.3-5.77,0.9 c-1.35,0.52-2.81,1.45-4.36,2.81c-0.5,0.44-1.17,0.62-1.81,0.46l-7.27-1.8C42.4,63.97,41.76,63.06,41.86,62.07L41.86,62.07z" fill="url(#SVGID_1_)"/>
</svg>

<svg viewBox="0 0 128 128" xmlns="http://www.w3.org/2000/svg">
  <defs>
    <linearGradient id="SVGID_1_" gradientTransform="matrix(1 0 0 -1 0 0)" gradientUnits="userSpaceOnUse" x1="64.005" x2="64.005" y1="-26.5" y2="-102.24">
      <stop offset="0" stop-color="#757575"/>
      <stop offset="0.5148" stop-color="#504F4F"/>
    </linearGradient>
  </defs>
  <path d="M41.86,62.07 L45.55,27.78 C45.66,26.77 46.51,26.01 47.53,26.01 L84.02,26.01 C85.12,26.01 86.01,26.9 86.01,28 L86.01,34.84 C86.01,35.94 85.12,36.83 84.02,36.83 L57.92,36.83 C56.91,36.83 56.06,37.59 55.95,38.59 L54.5,51.21 C54.33,52.7 55.79,53.81 57.19,53.28 C59.84,52.27 62.73,51.76 65.83,51.76 C72.97,51.76 78.52,54.04 82.49,58.61 C86.45,63.18 88.44,69.32 88.44,77.04 C88.44,84.66 86.24,90.73 81.85,95.24 C77.45,99.74 71.42,102 63.77,102 C56.9,102 51.21,100.05 46.7,96.16 C42.73,92.73 40.36,88.35 39.59,82.99 C39.42,81.8 40.36,80.73 41.57,80.73 L49.8,80.73 C50.74,80.73 51.54,81.39 51.74,82.31 C52.36,85.19 53.57,87.45 55.38,89.1 C57.51,91.04 60.29,92.01 63.72,92.01 C67.56,92.01 70.56,90.64 72.71,87.89 C74.85,85.14 75.93,81.4 75.93,76.67 C75.93,72.11 74.75,68.49 72.38,65.83 C70.01,63.17 66.75,61.84 62.6,61.84 C60.33,61.84 58.41,62.14 56.83,62.74 C55.48,63.26 54.02,64.19 52.47,65.55 C51.97,65.99 51.3,66.17 50.66,66.01 L43.39,64.21 C42.4,63.97 41.76,63.06 41.86,62.07 L41.86,62.07 Z" fill="url(#SVGID_1_)"/>
</svg>
